src/icons/lg/beach.svg

<svg width="24" height="24" viewBox="0 0 24 24" fill="none" xmlns="http://www.w3.org/2000/svg">
<path d="M13.2012 6.62162C13.87 8.00422 15.0247 12.3188 14.5225 14.7037C14.4321 15.1325 13.9708 15.344 13.5557 15.1929L11.3174 14.3775L9.61914 19.0425C9.7486 19.1398 9.88094 19.2435 10.0146 19.355C11.0222 20.1954 12.2404 20.8063 13.5508 20.8716C14.5265 20.9203 15.5854 20.9813 16.3281 21.0162C16.7328 21.0354 17.0205 21.4371 16.8994 21.8238C16.8896 21.8551 16.86 21.8765 16.8271 21.8765H3.50684C3.22709 21.8763 3.00025 21.6494 3 21.3697C3 20.996 3.10004 20.6273 3.30664 20.316C4.25137 18.8924 5.6659 17.3859 7.8418 18.0777L9.43848 13.6939L7.41895 12.9595C7.00383 12.8084 6.78675 12.35 6.99316 11.9634C8.14137 9.81352 11.8003 7.25063 13.2012 6.62162Z" fill="black"/>
<path d="M13.2012 6.62162C16.4909 7.81916 18.9098 12.0758 18.5137 15.3218C18.4073 16.1929 17.4567 16.6126 16.6094 16.3042L16.3223 16.1997C16.0398 16.0969 15.8628 15.8176 15.8945 15.521C16.1328 13.2961 16.0224 8.8221 13.2012 6.62162Z" fill="black"/>
<path d="M3.53809 9.87162C5.32099 7.13012 9.91119 5.42417 13.2012 6.62162C9.62536 6.49358 6.66466 9.84989 5.41699 11.7076C5.25063 11.9551 4.93486 12.0555 4.65234 11.9527L4.36621 11.8482C3.5189 11.5398 3.05973 10.6073 3.53809 9.87162Z" fill="black"/>
<path d="M19.3555 7.57084L19.96 7.73197C20.2933 7.8205 20.4932 8.15992 20.4062 8.49076C20.3191 8.82162 19.978 9.01834 19.6445 8.93022L19.04 8.77006C18.7066 8.68156 18.5066 8.34124 18.5938 8.01029C18.6811 7.67962 19.0221 7.4827 19.3555 7.57084Z" fill="black"/>
<path d="M13.5547 5.73979C14.1418 4.94188 15.1818 4.54093 16.2051 4.81205C17.5393 5.16573 18.3385 6.52624 17.9902 7.85014C17.9071 8.16578 17.7635 8.45041 17.5791 8.69682C16.5622 7.44251 15.1939 6.40387 13.5547 5.73979Z" fill="black"/>
<path d="M19.0293 4.49858C19.3268 4.3272 19.7085 4.4288 19.8828 4.72514C20.057 5.02159 19.9574 5.40112 19.6602 5.5728L19.1221 5.88334C18.8246 6.05485 18.441 5.9541 18.2666 5.65776C18.0924 5.36127 18.1929 4.98079 18.4902 4.80912L19.0293 4.49858Z" fill="black"/>
<path d="M13.0488 2.91459C13.3463 2.74317 13.729 2.84372 13.9033 3.14018L14.2178 3.67729C14.392 3.97386 14.2926 4.35433 13.9951 4.52592C13.6977 4.697 13.3148 4.59559 13.1406 4.29936L12.8252 3.76225C12.651 3.46576 12.7515 3.08624 13.0488 2.91459Z" fill="black"/>
<path d="M16.8359 2.41459C17.1693 2.50304 17.3691 2.84351 17.2822 3.17436L17.124 3.77397C17.0368 4.10485 16.6958 4.30173 16.3623 4.21342C16.0288 4.12495 15.8299 3.78458 15.917 3.45365L16.0732 2.85405C16.1605 2.5233 16.5025 2.32646 16.8359 2.41459Z" fill="black"/>
</svg>

<svg xmlns="http://www.w3.org/2000/svg" viewBox="0 0 24 24"><path d="M13.201 6.622c.669 1.382 1.824 5.697 1.322 8.082-.09.428-.552.64-.967.489l-2.239-.816-1.698 4.666q.195.145.396.312c1.007.84 2.225 1.451 3.536 1.517.976.048 2.034.11 2.777.144.405.02.692.421.571.808a.08.08 0 0 1-.072.052H3.507A.507.507 0 0 1 3 21.37c0-.374.1-.743.307-1.054.944-1.424 2.359-2.93 4.535-2.238l1.596-4.384-2.02-.735c-.414-.15-.631-.609-.425-.996 1.148-2.15 4.807-4.712 6.208-5.341"/><path d="M13.201 6.622c3.29 1.197 5.709 5.454 5.313 8.7-.107.87-1.057 1.29-1.905.982l-.287-.104a.65.65 0 0 1-.427-.679c.238-2.225.127-6.699-2.694-8.9M3.538 9.872c1.783-2.742 6.373-4.448 9.663-3.25-3.576-.128-6.536 3.228-7.784 5.086a.65.65 0 0 1-.765.245l-.286-.105c-.847-.308-1.306-1.24-.828-1.976M19.356 7.57l.604.162a.623.623 0 0 1 .446.759.62.62 0 0 1-.761.44l-.605-.16a.624.624 0 0 1-.446-.76.62.62 0 0 1 .761-.44M13.555 5.74a2.495 2.495 0 0 1 2.65-.928A2.495 2.495 0 0 1 17.99 7.85c-.083.316-.226.6-.41.847a10 10 0 0 0-4.025-2.957M19.03 4.499a.63.63 0 0 1 .853.226.616.616 0 0 1-.223.848l-.538.31a.63.63 0 0 1-.855-.225.62.62 0 0 1 .223-.849zM13.049 2.915a.63.63 0 0 1 .854.225l.315.537a.617.617 0 0 1-.223.849.63.63 0 0 1-.854-.227l-.316-.537a.617.617 0 0 1 .224-.847M16.836 2.415a.624.624 0 0 1 .446.76l-.158.599a.62.62 0 0 1-.762.44.624.624 0 0 1-.445-.76l.156-.6a.623.623 0 0 1 .763-.44"/></svg>
